d1 $s "superpiano(3, 8, {0, 2, 4})" #n "{0, 7}" #gain (rand)
|+| n "<0 5 -5 7 -7>"

d1 $ n "[c2 e3 g4 c5 c4 c3]" # s "[superstatic]"

d1 $ s "supernoise/8" # midinote ((irand 10) + 30) # sustain "8"
 # accelerate "0.5" # voice "0.5" # pitch1 "0.15" # slide "-0.5" # resonance "0.7"
 # attack "1" # release "20" # room "0.9" # size "0.9" # orbit "1"


d2 $ every 4 (echo (negate 3/32)) $ n "c5*4" # s "violin"
  # accelerate "-2" # speed "1" # sustain "0.1 ! ! 1" # voice "0.0"

hush

d1 $ spin 2 $ sound "drum*3 tabla:4 [arpy:2 ~ arpy] [can:2 can:3]"

d1 $ sometimesBy 0.75 (# crush 4) $ sound "bd arpy sn ~"


d1 $ zoom (0.25, 0.75) $ sound "bd*2 hh*3 [sn bd]*2 drum"

d1 $ every 4 (zoom (0.25, 0.75)) $ sound "bd*2 hh*3 [sn bd]*2 drum"


hush

d1
  -- $ jux (iter 4)
  -- $ every 4 (chop 16)
  -- $ every 6 (gap 32)
  $ stack[
    -- sound "bd:3 [sn:1*2] ~ bd:3" |+| gain "1.0",
    -- sound "bass ~ bass:3 ~" |+| gain "1.2",
    sound "[~ cp]*4" # gain "0.9" # pan rand
  ]

d1 silence

d1 $ seqP [
  (0, 12, sound "bd bd*2"),
  (4, 12, sound "hh*2 [sn cp] cp future*4"),
  (8, 12, sound (samples "arpy*8" (run 16)))
]

d1 $ slow 1 $ striate' 32 0.2 $ sound "bd"

d1 $ sound "violin"

d1 $ sound "alone:7"

hush

d1 silence


do
   d1
    -- $ whenmod 6 2 (stut' 1 (0.0625/2) (|*| speed "1.5"))
    -- $ whenmod 5 2 (|=| accelerate "-0.5 -1")
    -- $ every 2 (slow 2)
    -- $ slow 1
    $ s "peri*4 b*1 peri*4 ch*4 "
    |=| n (every 2 (density 2) $ "1 4 5")
    |=| cut "-1"
    -- #cutoff (scale 2000 18000 $slow 16 $sine1)
    -- #resonance "0.4"
    -- #sustain "0.15 0.05"
    -- #gain "1.0"

d1 silence

d2
  $jux (iter 4)
  $jux (iter 2)
  $stack[
    -- s "supersaw(7,8,4)" #n "{0, 7, 10, 17, 19}" #speed "1.5" #pan (rand),
    -- s "supersaw(7,8,2)" #n "{0, 7, 10, 17, 19}" #speed "1.0" #pan (rand),
    -- s "supersaw(3,8,7)" #n "{0, 7, 10, 17, 19}" #speed "0.75" #pan (rand),
    -- s "supersaw(3,8,5)" #n "{0, 7, 10, 17, 19}" #speed "0.5" #pan (rand),
    s "supersaw(3,8,3)" #n "{0, 7, 10, 17, 19}" #speed "2"
  ]
  -- |+|n "0 7 -7 12 -12"
  -- #cutoff (scale 2000 18000 $slow 16 $sine1)
  -- #resonance "0.4"
  -- #sustain "0.15 0.05"
  -- #gain "1.0"

d2 silence

d1
  $ sound "haw:1"
  # n "0 7 12"

hush

d1
  -- $ (|=| speed "2")
  $ sound "arpy*4" |+| speed "2"

hush

cps (140/120)


d1
  -- $ jux(iter 4)
  -- $ every 4(jux(rev)) (s "[bd cp] hh")
  -- $ every 4(slow 2) (s "[bd cp] hh")
  $ every 4(density 2) (s "[bd cp] hh") -- speed up

d1
$stack[
  s "arpy(3,8, {1,4})"
]
-- $ slow 1
-- $ n (off 0.125 (+12) $ off 0.25 (+7) $ "0(3,8) [5 7]")
-- # n"[[c3,e4,g4]*2 [e3,g4,b3]*4]"
-- #gain (every 3(rev) $"0.5 0.9")
-- #speed 1
#n "[[c4,e4,g4,c5]*4 [e4,g4,b5,e5]*4]"
-- #n "0, 7, 10, 17, 19"
-- #up (run 8)
-- #delay "0.5 0.5"
-- #delaytime "0.125 1"
-- #delayfeedback "0.3"
-- #room "0.7"

d1 $ n (off 0.125 (+12) $ off 0.25 (+7) $ "0(3,8) [5 7]") # sound "arpy"

-- d1 $ n (off 0.125 (+12) $ off 0.25 (+7) $ "0(3,8) [5 7]") # sound "arpy"

d1 $ sound "arpy(3,8,{3, 4})" # n (run 4)

d1 $ randcat [sound "bd*2 sn", sound "jvbass*3", sound "drum*2", sound "ht mt"]

d1 $ n (slow 4 $ "[[c4]*4 [e4]*4]" + "<12 7>") # s "trump"

hush
