cps (96/120)

d1
  $ stack[
    -- sound "bd:3 [sn:1*2] ~ bd:3" |+| gain "1.0",
    -- sound "bass ~ bass:3 ~" |+| gain "1.2",
    $ n "0" # s "sine" # speed 1.125,
    $ n "0" # s "sine" # speed 0.75
  ]



d1 silence

--sax
--newnotes
--blip
--f
--flick
--jvbass
