cps (120/120)

d1
  $stack[
    n "0*6" #s "newnotes" #up "6" #pan(0.7),
    n "0*6" #s "newnotes" #up "8" #pan(0.3),
    n "0*6" #s "newnotes" #up "13" #pan "[0 1]*3"
  ]
  #gain 1

d2
  $stack [
    n "8*6" #s "pluck" #up "[-7 -5]*3" #pan 0,
    n "8*6" #s "pluck" #up "[-2 0]*3" #pan 1
  ]
  #gain 1

d3
  $slow 1
  $stut 1 2 1
  $stack [
    s "{jvbass:0, jvbass:5}*6" #up "1 6 8 11 13 16",
    s "{jvbass:0, jvbass:5}*6" #up "-11 -6 -4 -1 1 4"
  ]
  #lpq 0.1
  #cutoff 2000
  #gain 1

d4
  $spin 4
  $jux(iter 3)
  $ s "blip*6"
  # up "7-7 -5 -2 0 5"
  #cutoff (scale 50 8000 $slow 8 $sine1)
  #lpq (scale 0.1 0.6 $slow 3 $sine)
  #pan rand
  #gain 0.5


d5
  $stack [
    every 3(linger 0.25)(palindrome(s "sn:1(3,{3,6})")) # gain (choose[0.8, 1, 1, 1, 1.5]) #pan(rand),
    every 4(linger 0.25)(palindrome(s "cp:4(5,{6,12})")) # gain (choose[0.8, 1 ,1 ,1]) #pan(rand),
     n "0*3" # s "oc:0" #gain 0.9,
     n "0*3" # s "cr:4" #gain 0.7
  ]


d6
  $stack [
    -- n "1*3" # s "sax" #up 26 #pan 0.5,
    n "1*3" # s "sax" #up 22 #pan 1,
    n "1*3" # s "sax" #up 19 #pan 0
  ]
  #gain 0.8

  hush
