cps (120/120)

d1 $stack [
  n "0*6" #s "newnotes" #up "6" #pan 0.7,
  n "0*6" #s "newnotes" #up "8" #pan 0.3,
  n "0*6" #s "newnotes" #up "13" # pan "[0 1]*3"
]
#gain 1

d2
  $stack [

  ]



-- every 4(linger 0.5)(palindrome(s "perc:5(3,{3,6})")) # gain (choose[0.6, 1,1,1]) #pan(rand),
-- every 4(linger 0.25)(palindrome(s "cp:4(5,{6,12})")) # gain (choose[0.6, 1,1,1]) #pan(rand),
